app/assets/images/heroicons/solid/arrow-left-end-on-rectangle.svg

<svg width="24" height="24" viewBox="0 0 24 24" fill="none" xmlns="http://www.w3.org/2000/svg">
<path fill-rule="evenodd" clip-rule="evenodd" d="M7.5 3.75C6.67157 3.75 6 4.42157 6 5.25L6 18.75C6 19.5784 6.67157 20.25 7.5 20.25H13.5C14.3284 20.25 15 19.5784 15 18.75V15C15 14.5858 15.3358 14.25 15.75 14.25C16.1642 14.25 16.5 14.5858 16.5 15V18.75C16.5 20.4069 15.1569 21.75 13.5 21.75H7.5C5.84315 21.75 4.5 20.4069 4.5 18.75L4.5 5.25C4.5 3.59315 5.84315 2.25 7.5 2.25L13.5 2.25C15.1569 2.25 16.5 3.59315 16.5 5.25V9C16.5 9.41421 16.1642 9.75 15.75 9.75C15.3358 9.75 15 9.41421 15 9V5.25C15 4.42157 14.3284 3.75 13.5 3.75L7.5 3.75ZM12.5303 8.46967C12.8232 8.76256 12.8232 9.23744 12.5303 9.53033L10.8107 11.25L21.75 11.25C22.1642 11.25 22.5 11.5858 22.5 12C22.5 12.4142 22.1642 12.75 21.75 12.75L10.8107 12.75L12.5303 14.4697C12.8232 14.7626 12.8232 15.2374 12.5303 15.5303C12.2374 15.8232 11.7626 15.8232 11.4697 15.5303L8.46967 12.5303C8.17678 12.2374 8.17678 11.7626 8.46967 11.4697L11.4697 8.46967C11.7626 8.17678 12.2374 8.17678 12.5303 8.46967Z" fill="#0F172A"/>
</svg>

<svg xmlns="http://www.w3.org/2000/svg" viewBox="0 0 24 24" fill="currentColor" aria-hidden="true" data-slot="icon">
  <path fill-rule="evenodd" d="M7.5 3.75A1.5 1.5 0 0 0 6 5.25v13.5a1.5 1.5 0 0 0 1.5 1.5h6a1.5 1.5 0 0 0 1.5-1.5V15a.75.75 0 0 1 1.5 0v3.75a3 3 0 0 1-3 3h-6a3 3 0 0 1-3-3V5.25a3 3 0 0 1 3-3h6a3 3 0 0 1 3 3V9A.75.75 0 0 1 15 9V5.25a1.5 1.5 0 0 0-1.5-1.5h-6Zm5.03 4.72a.75.75 0 0 1 0 1.06l-1.72 1.72h10.94a.75.75 0 0 1 0 1.5H10.81l1.72 1.72a.75.75 0 1 1-1.06 1.06l-3-3a.75.75 0 0 1 0-1.06l3-3a.75.75 0 0 1 1.06 0Z" clip-rule="evenodd"/>
</svg>
